!!!COM: Music21
!!!OTL: Jota de Vilarmaior
!!!OMV: pezas_jotas_jota-de-vilarmaior_jota-de-vilarmaior-partitura.musicxml
**kern
*I"Bagpipes
*I'Bag
*clefG^2
*k[b-]
*F:
*M3/4
=1
!LO:TX:a:t=Prestissimo
*MM200
!LO:TX:a:t=[quarter]=200
4r
8aaL
8bb-J
8aaL
8ggJ
=||
4ff
8eeL
8ddJ
4cc
=
4cc
8ffL
8ffJ
8ffL
8ffJ
=
4ff
8eeL
8ddJ
4cc
=
4cc
4bb-
4aa
=
8ggL
8aaJ
8ggL
8ffJ
[4ee
=
4ee]
8ddL
8eeJ
8ddL
8eeJ
=
4ff
8eeL
8ddJ
4cc
=
4cc
8aaL
8bb-J
8aaL
8ggJ
!!linebreak:original
=
4ff
8eeL
8ddJ
4cc
=
4cc
8ccL
8ddJ
8eeL
8ffJ
=
4aa
8ggL
8aaJ
[4bb-
=
4bb-]
8ggL
8aaJ
8bb-L
8ggJ
=
4aa
4ff
4aa
=
4gg
4ff
4ee
=
[2.ff
=
4ff]
8aaL
8bb-J
8aaL
8ggJ
=||
4ff
8eeL
8ddJ
4cc
=
4cc
8ffL
8ffJ
8ffL
8ffJ
!!linebreak:original
=
4ff
8eeL
8ddJ
4cc
=
4cc
4bb-
4aa
=
8ggL
8aaJ
8ggL
8ffJ
[4ee
=
4ee]
8ddL
8eeJ
8ddL
8eeJ
=
4ff
8eeL
8ddJ
4cc
=
4cc
8aaL
8bb-J
8aaL
8ggJ
!!linebreak:original
=
4ff
8eeL
8ddJ
4cc
=
4cc
8ccL
8ddJ
8eeL
8ffJ
=
4aa
8ggL
8aaJ
[4bb-
=
4bb-]
8ggL
8aaJ
8bb-L
8ggJ
=
4aa
4ff
4aa
=
4gg
4ff
4ee
=
[2.ff
=
2.ff_
=
2ff]
16ccLL
16dd
16ee
16ffJJ
!!linebreak:original
=||
4gg
4ff
4ee
=
4gg
4ff
4ee
=
4ff
8eeL
8ddJ
4cc
=
[2cc
16ccLL]
16dd
16ee
16ffJJ
=
4aa
4gg
4ff
=
4aa
4gg
4ff
=
4aa
16ggLL
16aaJ
8ggJ
8ffL
8eeJ
=
[2.ff
=
2ff]
16ccLL
16dd
16ee
16ffJJ
=
4gg
4ff
4ee
=
4gg
4ff
4ee
!!linebreak:original
=
4ff
8eeL
8ddJ
4cc
=
2cc
4cc
=
4bn
4cc
4dd
=
2.aa
=
4aa
8ggL
8aaJ
[4bb-
=
4bb-]
8ggL
8aaJ
8bb-L
8ggJ
=
4aa
4ff
4aa
=
4gg
4ff
4ee
=
2.ff
=
4cc
4dd
4ee
=
2.aa
=
4aa
8ggL
8aaJ
[4bb-
!!linebreak:original
=
4bb-]
8ggL
8aaJ
8bb-L
8ggJ
=
4aa
4ff
4aa
=
4gg
4ff
4ee
=
[2.ff
=
4ff]
8aaL
8bb-J
8aaL
8ggJ
==
*-
